X:355
T:Grand March by T.Thompson. RH.355
R:march
S:Rev.R.Harrison’s MS,c1815,Cumbria
O:England
A:Temple Sowerby,Cumbria
Z:vmp.Simon Wilson. Review PJH, 2008.
M:C
L:1/8
Q:2/4=80
K:D
F>G|A2A>A B2Bc|d2d>d d2cd|\
e2e>e a2a/b/a/g/|f2f>f f2f>a|\
age>c dcd>a|age>c dAf>a|!
agf>c dAa>f|e2f>e e2″8ve————–“F>G|\
{B}A2A>A B2Bc|d2d>d d2c>d|\
e2e>e a2a/g/a/g/|f2f>f f2″Loca”f>a|!
age>c dAf>a|age>c dAd>a|\
age>c dAA>d|e2e>ee2||!
c>d|e2c/d/c/d/ e2e/f/e/f/|gfed cBAG|\
F2(d/e/d/e/) f2f/g/f/g/|ad’c’b bagf|\
b2g>g g>db>g|{b}b2a>a a2f>a|\
{f}g2g>g g>ea>g|e>cd>f e>cdz/f/|\
a2A>A .Az/A/d>f|e>c.df ec.df|\
a2a>a a2f>g|”8ve————-“A2A>A “~”A2B>c|\
{f}d2d>d d2cd|e2e>e a2a/b/a/g/|\
f2f>f f2″Loca”f>a|age>c dAf>a|\
age>c d>fA>d|Bg/a/ g/a/g/f/e/ d2c2|\
dDFD GEFF|D2b2 a2c2|\
dDFD GEAF|D2b2 a2a2|d’2dd d2:|

